X: 1
T: LITTLE DIAMOND -- JIG
B: Ryan's Mammoth Collection of Fiddle Tunes
R: jig
M: 2/4
L: 1/16
Z: Contributed 20020121133602 by John Chambers jmchambers:rcn.com
K: A
vec ze zc e2 | ec zA BcA2 | fd zf zd f2 | ec zA BcA2 :|
|: vEA (3AAA cc zc | zd zf e4 | ((3efg) aA BcA2 | Ec zA BcA2 :|
